fs/share_screen_start_28_regular.svg

<svg viewBox="0 0 28 28" fill="none" xmlns="http://www.w3.org/2000/svg" height="1em" width="1em">
  <path d="M2 7.24902C2 6.00638 3.00736 4.99902 4.25 4.99902H23.75C24.9926 4.99902 26 6.00638 26 7.24902V20.7496C26 21.9923 24.9926 22.9996 23.75 22.9996H4.25C3.00736 22.9996 2 21.9923 2 20.7496V7.24902ZM4.25 6.49902C3.83579 6.49902 3.5 6.83481 3.5 7.24902V20.7496C3.5 21.1639 3.83579 21.4996 4.25 21.4996H23.75C24.1642 21.4996 24.5 21.1639 24.5 20.7496V7.24902C24.5 6.83481 24.1642 6.49902 23.75 6.49902H4.25ZM13.9975 8.62066C14.1965 8.62059 14.3874 8.69961 14.5281 8.84033L17.7826 12.0948C18.0755 12.3877 18.0755 12.8626 17.7826 13.1555C17.4897 13.4484 17.0148 13.4484 16.7219 13.1555L14.7477 11.1813V18.628C14.7477 19.0422 14.412 19.378 13.9977 19.378C13.5835 19.378 13.2477 19.0422 13.2477 18.628V11.1831L11.2784 13.1551C10.9858 13.4482 10.5109 13.4486 10.2178 13.1559C9.92469 12.8632 9.92436 12.3883 10.217 12.0952L13.467 8.8407C13.6077 8.69989 13.7985 8.62073 13.9975 8.62066Z" fill="#212121"/>
</svg>

<svg viewBox="0 0 28 28" fill="none" xmlns="http://www.w3.org/2000/svg" height="1em" width="1em">
  <path d="M2 7.249a2.25 2.25 0 0 1 2.25-2.25h19.5A2.25 2.25 0 0 1 26 7.249v13.5A2.25 2.25 0 0 1 23.75 23H4.25A2.25 2.25 0 0 1 2 20.75V7.25Zm2.25-.75a.75.75 0 0 0-.75.75v13.5c0 .415.336.75.75.75h19.5a.75.75 0 0 0 .75-.75V7.25a.75.75 0 0 0-.75-.75H4.25Zm9.748 2.122a.75.75 0 0 1 .53.22l3.255 3.254a.75.75 0 0 1-1.061 1.06l-1.974-1.974v7.447a.75.75 0 1 1-1.5 0v-7.445l-1.97 1.972a.75.75 0 1 1-1.061-1.06l3.25-3.254a.75.75 0 0 1 .53-.22Z" fill="#212121"/>
</svg>
